!!!COM:	Compere, Loyset
!!!CDT:	~1445///-1518/08/16
!!!OTL:	Reveille toy franc cuer joyeulx
!!!AGN:	Song; Chanson
!!!SCT:	Com3033
!!!SCA:	Com3033
!!!voices:	3
**kern	**kern	**kern
*staff3	*staff2	*staff1
*Ivox	*Ivox	*Ivox
*I"Bassus	*I"Tenor	*I"Superius
*I'B	*I'T	*I'S
*clefF4	*clefGv2	*clefG2
*k[b-]	*k[b-]	*k[b-]
*M2/1	*M2/1	*M2/1
*met(C|)	*met(C|)	*met(C|)
=1-	=1-	=1-
1GG	1G	1g
2GG	2G	2g
2GG	2G	2g
=2	=2	=2
1GG	1d	1b-
1GG	1d	1b-
=3	=3	=3
1.GG	2d	2b-
.	1d	1b-
[2GG	4c	4a
.	4B-	4g
=4	=4	=4
4GG]	4c	4a
4AA	4B-	4g
4BB-	4A	4f
4C	4G	4e
1D	1A	1f
=5	=5	=5
2r	2r	2r
2D	2A	2f
2BB-	2B-	2g
2AA	2c	2a
=6	=6	=6
2GG	1d	1b-
2G	.	.
2A	[1c	2a
[2F	.	4b-
.	.	4a
=7	=7	=7
2F]	1c]	4b-
.	.	4a
4E	.	4g
4F	.	4f
1G	1B-	2g
.	.	4a
.	.	4g
=8	=8	=8
0D	0A	4a
.	.	4g
.	.	4f#i
.	.	4e
.	.	2f#i
.	.	4e
.	.	4f#i
=9	=9	=9
1GG	1G	1g
1G	1B-	1g
=10	=10	=10
2G	2B-	2g
2G	2B-	2g
1F	1c	1a
=11	=11	=11
1G	0B-	1.g
1E-	.	.
.	.	2f
=12	=12	=12
1F	1A	1.f
[1C	[1G	.
.	.	4e
.	.	4d
=13	=13	=13
1C]	1G]	1e
1D	1F	1f
=14	=14	=14
2r	2r	2r
2D	2F	2f
2E-i	2G	2b-
2C	2A	2cc
=15	=15	=15
1BB-	1B-	1dd
[1AA	[1e-	[1cc
=16	=16	=16
2AA]	1e-]	2cc]
4GG	.	2b-
4AA	.	.
1BB-	1d	[1b-
=17	=17	=17
0FF	0c	2b-]
.	.	4a
.	.	4g
.	.	1a
=18	=18	=18
1BB-	1B-	1b-
1r	1r	1r
=19	=19	=19
1E-	1G	1b-
2E-i	2G	2b-
2E-i	2G	2b-
=20	=20	=20
2E-i	1G	1b-
2E-i	.	.
2.E-i	2G	1b-
.	[2B-	.
4D	.	.
=21	=21	=21
1E-i	2B-]	2a
.	4A	1g
.	4G	.
1E-i	2B-	.
.	2c	4f
.	.	4e
=22	=22	=22
1D	1d	1f
2r	2r	2r
2D	2d	2f
=23	=23	=23
2C	2e	2g
2C	2c	2a
1BB-	1d	1b-
=24	=24	=24
0F	1.c	1a
.	.	4a
.	.	4g
.	4B-	4f
.	4A	4e
=25	=25	=25
1G	1B-	4d
.	.	4e
.	.	4f
.	.	4g
2.D	[1A	4a
.	.	4g
.	.	4f#i
4E	.	4e
=26	=26	=26
1D	1A]	2.f#i
.	.	8eL
.	.	8f#iJ
1GGl	1Gl	1gl
==	==	==
*-	*-	*-
!!!RDF**kern: l=long note in original notation
!!!RDF**kern: i=editorial accidental
!!!ENC:	Megan K. Eagen 2013/12/01
!!!END:	2013/12/01/
!!!EED:	Jesse Rodin
!!!EEV:	2014/02/23/
!!!ONB:	Translated from MusicXML and edited on 2014/02/23/ by Craig Sapp
!!muse2ps: C^@{COM}^i2I150v95,95,150Q16
